X:1
T:Are You Looking for a Friend?
T:Are You Looking for a Friend?
T:Alice Esther Hansell
T:Alice Esther Hansell, 1920
T:Public Domain Courtesy of the Cyber Hymnal™
T:Public Domain Courtesy of the Cyber Hymnal™
C:Alice Esther Hansell
Z:Public Domain
Z:Courtesy of the Cyber Hymnal™
%%score ( 1 2 ) ( 3 4 )
L:1/8
Q:1/4=90
M:4/4
K:F
V:1 treble 
V:2 treble 
V:3 bass 
V:4 bass 
V:1
 [CF][FG] | [FA][FA][FA][FA] [CF]2 [FA][FB] | [Fc][Fc][Fc][Fc] [FA]2 [Fc]2 | %3
w: 1.~Are you|look- ing for a friend, One who|will your life de- fend, A|
w: 2.~Are you|look- ing for a friend, One on|whom you can de- pend, A|
w: 3.~He’s the|dear- est in the world, For when|hu- man lips are curled, He’s|
 [Fd]2 [Fc]2 [FA]2 [CF]2 | [FA][FG][FG][FA] [EG]2 F[CG] | [CA][CA][CA][CA] [A,F]2 [B,G][_EA] | %6
w: friend in- deed, whose|love is deep and true; There is|one close by your side, And with|
w: friend who stand- eth|true when o- thers fail; You will|find the Lord, in- deed, Is a|
w: pre- cious, oh, so|pre- cious, day by day, And He’s|wait- ing now for you, For your|
 [DB][CA][DB][Ec] [Fd]2 [Fd][Fd] | [Fc]2 [Ec]2 [Fc][FA][CF][FG] | [FA]2 [EG]2 !fermata!F3 || %9
w: you He would con- fide He is|wait- ing to re- lieve and|com- fort you.|
w: friend in ev- ery need, And He|bids you have the faith on|Him to call.|
w: heart and ser- vice, too; Will you|take Him as your friend while|now you may?|
"^Refrain" [FA]2 | c6 [FA]2 | d4 [Fc]2 [FA]2 | [EG]2 [EG][EG] [FA]2 [FA]2 | %13
w: ||||
w: This|friend is|Je- sus, He|died on the cross to|
w: ||||
 [F=B] [FA]2 [FG] !fermata![Ec]2 [FA]2 | c6 [FA][FA] | %15
w: ||
w: save you from sin; This|friend who will|
w: ||
"^riten." [EA]2 [Fc][Fc] !fermata![Fd]2 !fermata![Fdf]2 | [Fc][Fc] [Ec]2 [Fc]2 [FA]2 | %17
w: ||
w: keep to the end, This|won- der- ful friend is|
w: ||
!<(! G4!<)! !fermata!F3 |] %18
w: |
w: Je- sus.|
w: |
V:2
 x2 | x8 | x8 | x8 | x6 F x | x8 | x8 | x8 | x4 F3 || x2 | (FF E2 F2) x2 | (F F2 F) x4 | x8 | x8 | %14
 (FF E2 F2) x2 | x8 | x8 | (F2 E2) F3 |] %18
V:3
 [F,A,][F,B,] | [F,C][F,C][F,C][F,C] [F,A,]2 [F,C][F,B,] | %2
w: ~ ~|~ ~ ~ ~ ~ ~ ~|
 [F,A,][F,A,][F,A,][F,A,] [F,C]2 [F,A,]2 | B,2 [A,C]2 [F,C]2 [A,C]2 | %4
w: ~ ~ ~ ~ ~ ~|~ ~ ~ ~|
 [G,=B,][G,B,][=B,,G,][G,,B,] (CB,)[F,A,][E,G,] | F,F,F,F, F,2 F,F, | %6
w: ~ ~ ~ ~ ~ * ~ ~|~ ~ ~ ~ ~ ~ ~|
 [B,,F,][B,,F,][B,,F,][B,,F,] [B,,B,]2 [=B,,^F,][B,,F,] | [C,A,]2 [C,B,]2 [F,A,][F,C][A,,C][B,,D] | %8
w: ~ ~ ~ ~ ~ ~ ~|~ ~ ~ ~ ~ ~|
 [C,C]2 [C,B,]2 !fermata![F,A,]3 || [F,C]2 | [F,A,][F,A,] [G,B,]2 [A,C]2 [F,C]2 | %11
w: ~ ~ ~|This|won- der- ful friend is|
 B, B,2 B, [A,C]2 [F,C]2 | [G,C]2 [G,C][G,C] [G,=B,]2 [G,B,]2 | %13
w: Je- sus, my Lord, ~|~ ~ ~ ~ ~|
 [G,D] [G,=B,]2 G, !fermata![C,G,]2 [C,C]2 | [F,A,][F,A,] [G,B,]2 [A,C]2 [F,C][F,C] | %15
w: ~ ~ ~ ~ This|won- der- ful friend * *|
 [G,C]2 [A,C][A,C] !fermata!B,2 !fermata![=B,,^G,]2 | [C,A,][C,A,] [C,G,]2 [C,A,]2 [C,C]2 | %17
w: ||
 ([D,=B,]2 [C,_B,]2) !fermata![F,A,]3 |] %18
w: |
V:4
 x2 | x8 | x8 | B,2 x6 | x4 C,2 x2 | F,F,F,F, F,2 F,F, | x8 | x8 | x7 || x2 | x8 | B, B,2 B, x4 | %12
 x8 | x3 G, x4 | x8 | x4 =B,2 x2 | x8 | x7 |] %18

